X:1     
T:Low Down in the Broom
B: Purslow, F, (1968), The Wanton Seed, EDFS, London
S:George Smith, Fareham, Hants, July 1906
Z:Gardiner H 460
F:http://www.folkinfo.org/songs
M:6/8     %Meter
L:1/8     %
K:G
D |G2 G G2 G |(B,2D) G2 G |B2 B (AG) A | G3-G2
w:'Twas on last Eas-ter Mon-*day, the day ap-point-*ed was_
 G |G2 G G2 G |B,2 D G2 G |B2 B (AG) A | G3-G2
w: For me to go down in the broom to meet my bon-*ny lass_
 B |d2 c B2 A |G2 A D2 D |E2 E F2 G | A3 
w: How sweet and plea-sant was the day I kept her com-pa-ny,
G2 B |d3 (BA) G |E2 E B,2 C |D2 D (DE) G | G3-G2  |]
w:She was low, low_ down in the broom a-wait-ing there_ for me_